!!!COM: Palestrina, Giovanni Perluigi da
!!!OPR: Missa Sacerdos et pontifex
!!!OMD: Credo
!!!OTL: Crucifixus
**kern	**kern	**kern	**kern
*Itenor	*Itenor	*Icalto	*Icant
!Tenor 2	!Tenor 1	!Altus	!Cantus
*clefGv2	*clefGv2	*clefG2	*clefG2
*k[b-]	*k[b-]	*k[b-]	*k[b-]
*G:dor	*G:dor	*G:dor	*G:dor
*M4/2	*M4/2	*M4/2	*M4/2
=62	=62	=62	=62
0G	0g	0b	0dd
=63	=63	=63	=63
1G	1g	1b	1dd
1c	1g	1cc	1ee-
=64	=64	=64	=64
1d	2.f	1a	1dd
.	4e	.	.
2.B-	1d	2b-	2.dd
.	.	2f	.
4A	.	.	4cc
=65	=65	=65	=65
2G	0r	2g	2b-
2F#	.	2a	2a
2.G	.	[1b-	4g
.	.	.	4a
.	.	.	4b-
4A	.	.	4cc
=66	=66	=66	=66
4B-	2.f	2b-]	4dd
4c	.	.	4ee
4d	.	4a	1ff
4e	4e	4g	.
4f	2d	2.a	.
4g	.	.	.
[2a	2c#	.	[2ee
.	.	4g	.
=67	=67	=67	=67
4a]	1d	4f	4ee]
4d	.	4g	4dd
2f	.	4a	1dd
.	.	4b-	.
1e	1A	1a	.
.	.	.	2cc#
=68	=68	=68	=68
1d	2B-	2f	2dd
.	2G	2b-	2dd
1r	2.d	2a	2.ff
.	.	2f	.
.	4c	.	4ee
=69	=69	=69	=69
1r	2B-	2f	2dd
.	2A	2f	2cc
2r	1G	2g	1b-
2g	.	[2d	.
=70	=70	=70	=70
2.f	1d	4d]	2.a
.	.	4e	.
.	.	2.f	.
4e	.	.	4g
2d	1r	.	4a
.	.	4d	4b-
2c	.	2e	[2a
=71	=71	=71	=71
1B-	2r	1d	2a]
.	1d	.	2g
1A	.	1e	1a
.	2c	.	.
=72	=72	=72	=72
1B-	1.f	4d	2r
.	.	4e	.
.	.	4f	1dd
.	.	4g	.
1A	.	2.a	.
.	2e	.	[2cc
.	.	4g	.
=73	=73	=73	=73
1B-	2.d	2f	2cc]
.	.	1d	1b-
.	4e	.	.
1F	1f	.	.
.	.	[2c	[2a
=74	=74	=74	=74
1G	2e	4c]	2a]
.	.	4B	.
.	2d	2B	1g
1A	2c	1c	.
.	[2c	.	2f#
=75	=75	=75	=75
1G	2c]	1d	0g
.	2B	.	.
1r	1c	1e	.
*-	*-	*-	*-
!!!CDT: 1525/^1526/-1594/2/2
!!!OCY: Italia
!!!AGN: Mass (Paraphrase)
!!!AST: renaissance, vocal
!!!ASW: Antiphon
!!!PWK: Masses, Book 7
!!!RNB: Cadence finals: C,D
!!!YOR: Le Opere Complete, v. 23, p. 82
!!!YOO: Rome, Italy: Fratelli Scalera
!!!END: 1992//
!!!EED: John Miller
!!!YEC: Copyright 2000, John Miller
!!!YEN: United States of America
!!!YEM: Rights to all derivative electronic formats reserved.
!!!YEM: Refer to licensing agreement for further details.
!!!YEM: This file must be accompanied by the licensing agreement.
!!!YEM: A copy of the licensing agreement may be found at http://www.music-cog.ohio-state.edu/HumdrumDatabases/Palestrina/license.txt
!!!EMD: converted to Humdrum by Bret Aarden
